Cloud/dashboard/static/tracks/baku_street_circuit.svg

<?xml version="1.0" encoding="UTF-8"?>
<!-- Uploaded to: SVG Find, www.svgfind.com, Generator: SVG Find Mixer Tools -->
<svg fill="#000000" width="800px" height="800px" version="1.1" viewBox="144 144 512 512" xmlns="http://www.w3.org/2000/svg">
 <path d="m587.67 221.91-30.629-33.207c-3.2539-3.5234-9.2383-3.793-12.797-0.56641l-87.164 79.059c-0.99219 0.89453-1.9531 1.8125-2.8906 2.7539l-48.914 49.297c-3.1758 3.2031-3.2656 8.3086-0.21484 11.629l13.789 14.945-16.176 14.93c-0.94141 0.79297-23.145 19.613-30.699 34.957-1.7461 3.543-1.0156 7.7891 1.8125 10.559 1.0352 1.0156 2.0234 1.9062 2.9648 2.6641l-41.703 67.93-22.512-27.367c-2.4453-2.9414-6.7188-3.9609-10.207-2.4492l-1.5977 0.72266c-1.9648 0.91406-2.418 1.1602-3.6133 0.85547-2.2852-0.54688-4.7812-0.13281-6.4141 0.25391-0.60156 0.14453-1.168 0.27734-1.5039 0.27734-0.55469 0-1.5859-1.0742-1.8906-1.4062l-5.082-5.5117c-3.0781-3.3281-8.7148-3.6172-12.09-0.61719-15.535 13.738-52.367 47.238-58.871 61.574-0.74219 1.6328-1.1758 3.4258-1.2773 5.3398-0.14453 2.582-0.58203 11.438-0.28516 17.094 0.09375 1.6758 0.125 3.8398 0.16797 6.2344 0.12109 7.1875 0.27734 16.133 1.8828 21.691 1.9961 6.8945 4.3047 12.898 7.7305 20.066 2.125 4.4727 5.7109 13.027 8.3398 19.41 0.59766 1.457 0.87891 2.9883 0.83594 4.5547l-0.058593 2.1953c-0.12109 4.3828 3.2109 8.0938 7.5898 8.4414l74.082 5.8633 0.78906 0.035157c5.1367 0 9.5078-4.0117 9.9375-9.125 0.74609-8.7383 2.3047-24.723 4.3203-33.586 0.26562-1.1758 0.67188-2.3125 1.2148-3.3828l19.355-38.633c4.0234-8.0391 7.832-15.637 5.6758-25.762l-0.14453-0.69922c-1.1445-5.3711-0.17969-10.895 2.7188-15.559l40.711-65.57c0.44531-0.71875 0.98047-1.375 1.6367-1.9922l140.18-134.86 6.8789 7.1953 30.223-28.887 4.8633-0.0625 4.1602-15.438-8.2344 7.8711-30.848 29.484-3.4531-3.6133 46.902-45.121c4.0938-3.8438 4.3281-10.34 0.51172-14.473zm-7.3711 7.2695-190.66 183.43c-1.2422 1.1641-2.332 2.4922-3.2344 3.9492l-40.707 65.57c-4.2578 6.8555-5.6758 14.977-3.9961 22.879l0.14453 0.69922c1.4258 6.7148-1.1992 11.965-4.8438 19.234l-19.348 38.617c-0.89844 1.7812-1.582 3.6836-2.0312 5.6484-2.1445 9.4414-3.7578 25.941-4.5312 34.949 0 0-0.007812 0.019531-0.027344 0.019531v4.9727l-0.003906-4.9727-72.473-5.7383 0.019531-0.59375c0.074219-2.957-0.45703-5.8438-1.582-8.5938-2.6797-6.5039-6.3359-15.238-8.5625-19.91-3.1758-6.6562-5.3125-12.203-7.1484-18.551-1.2422-4.2891-1.3867-12.852-1.4961-19.102-0.042968-2.5312-0.085937-4.8203-0.17969-6.5938-0.27734-5.1562 0.14453-13.562 0.27734-16.016 0.039062-0.66797 0.17578-1.2617 0.40625-1.7695 4.6133-10.168 32.527-37.066 55.453-57.406l4.2227 4.582c2.8594 3.1016 5.8711 4.6055 9.1992 4.6055 1.4961 0 2.7734-0.30469 3.8008-0.54688 0.62109-0.14844 1.2461-0.27734 1.7734-0.26172 4.1367 1 7.3906-0.22656 10.141-1.5l0.54297-0.24609 22.406 27.238c1.793 2.1602 4.4336 3.4023 7.2383 3.4023 3.2812 0 6.2734-1.6641 8.0195-4.4688l43.293-70.52c2.1445-3.4453 1.1211-8.0078-2.2773-10.168-0.80078-0.51172-1.8438-1.3711-2.9805-2.457 6.9297-13.414 27.711-31.039 28.086-31.359l17.074-15.746c1.7578-1.625 2.7773-3.8359 2.875-6.2227 0.09375-2.3945-0.74609-4.6797-2.3711-6.4336l-13.461-14.594 47.887-48.254c0.8125-0.81641 1.6445-1.6133 2.5039-2.3906l86.547-78.5 30.059 32.59z"/>
</svg>

<?xml version="1.0" encoding="utf-8"?>
<svg fill="#000000" width="800px" height="800px" version="1.1" viewBox="144 144 512 512" xmlns="http://www.w3.org/2000/svg">
  <path d="M 587.67 221.91 L 557.041 188.703 C 553.787 185.18 547.803 184.91 544.244 188.137 L 457.08 267.196 C 456.088 268.09 455.127 269.008 454.189 269.949 L 405.275 319.246 C 402.1 322.45 402.01 327.555 405.061 330.875 L 418.85 345.82 L 402.674 360.75 C 401.732 361.543 379.529 380.363 371.975 395.707 C 370.228 399.25 370.959 403.497 373.787 406.266 C 374.822 407.282 375.81 408.173 376.752 408.931 L 335.049 476.861 L 312.537 449.494 C 310.092 446.552 305.818 445.533 302.33 447.044 L 300.732 447.767 C 298.767 448.681 298.314 448.927 297.119 448.622 C 294.834 448.076 292.338 448.49 290.705 448.876 C 290.103 449.021 289.537 449.154 289.201 449.154 C 288.646 449.154 287.615 448.08 287.31 447.748 L 282.228 442.236 C 279.15 438.908 273.513 438.619 270.138 441.619 C 254.603 455.357 217.771 488.857 211.267 503.193 C 210.525 504.826 210.091 506.618 209.99 508.533 C 209.845 511.115 209.408 519.971 209.705 525.627 C 209.799 527.302 209.83 529.466 209.873 531.861 C 209.994 539.048 210.15 547.994 211.756 553.552 C 213.752 560.446 216.06 566.45 219.486 573.618 C 221.611 578.091 225.197 586.645 227.826 593.028 C 228.424 594.485 228.705 596.016 228.662 597.583 L 228.603 599.778 C 228.482 604.161 231.814 607.872 236.193 608.219 L 310.275 614.083 L 311.064 614.118 C 316.201 614.118 320.572 610.106 321.002 604.993 C 321.748 596.254 323.306 580.27 325.322 571.407 C 325.587 570.231 325.994 569.094 326.537 568.024 L 345.892 529.391 C 349.915 521.352 353.724 513.754 351.568 503.629 L 351.423 502.93 C 350.278 497.559 351.243 492.035 354.142 487.371 L 394.853 421.801 C 395.298 421.082 395.833 420.426 396.489 419.808 L 587.161 236.377 C 591.255 232.533 591.489 226.037 587.673 221.904 L 587.67 221.91 Z M 580.299 229.18 L 389.639 412.609 C 388.397 413.774 387.307 415.102 386.404 416.559 L 345.697 482.129 C 341.44 488.984 340.022 497.106 341.701 505.008 L 341.846 505.707 C 343.272 512.422 340.647 517.672 337.002 524.941 L 317.654 563.558 C 316.756 565.339 316.072 567.242 315.623 569.206 C 313.478 578.648 311.865 595.147 311.092 604.155 C 311.092 604.155 311.084 604.175 311.064 604.175 L 311.064 609.148 L 311.06 604.175 L 238.587 598.437 L 238.607 597.843 C 238.681 594.886 238.15 591.999 237.025 589.249 C 234.345 582.745 230.689 574.011 228.463 569.339 C 225.287 562.683 223.15 557.136 221.314 550.788 C 220.072 546.499 219.927 537.936 219.818 531.686 C 219.775 529.155 219.732 526.866 219.638 525.092 C 219.361 519.936 219.783 511.53 219.916 509.076 C 219.955 508.408 220.091 507.814 220.322 507.307 C 224.935 497.139 252.849 470.241 275.775 449.901 L 279.998 454.483 C 282.857 457.584 285.869 459.088 289.197 459.088 C 290.693 459.088 291.97 458.783 292.998 458.541 C 293.619 458.393 294.244 458.264 294.771 458.28 C 298.908 459.28 302.162 458.053 304.912 456.78 L 305.455 456.533 L 327.861 483.771 C 329.654 485.932 332.295 487.174 335.099 487.174 C 338.38 487.174 341.373 485.51 343.119 482.705 L 386.412 412.185 C 388.556 408.74 387.533 404.177 384.134 402.017 C 383.334 401.505 382.291 400.646 381.154 399.56 C 388.084 386.146 408.865 368.521 409.24 368.201 L 426.314 352.455 C 428.072 350.83 429.091 348.619 429.189 346.232 C 429.283 343.838 428.443 341.553 426.818 339.799 L 413.357 325.205 L 461.244 276.951 C 462.056 276.134 462.888 275.337 463.748 274.56 L 550.295 196.06 L 580.354 228.65 L 580.299 229.18 Z"/>
</svg>
